www/assets/icons/solar_power.svg

<svg width="24" height="24" viewBox="0 0 24 24" xmlns="http://www.w3.org/2000/svg" fill='currentColor'><path d="M3.33 16H11V13H4L3.33 16Z"/><path d="M13 16H20.67L20 13H13V16Z"/><path d="M21.11 18H13V22H22L21.11 18Z"/><path d="M2 22H11V18H2.89L2 22Z"/><path d="M13 8H11V11H13V8Z"/><path d="M17.1787 5.79096L15.7645 7.20516L17.8858 9.32646L19.3 7.91226L17.1787 5.79096Z"/><path d="M6.82616 5.79149L4.70486 7.91279L6.11906 9.32699L8.24036 7.20569L6.82616 5.79149Z"/><path d="M6 2H3V4H6V2Z"/><path d="M21 2H18V4H21V2Z"/><path d="M12 7C14.76 7 17 4.76 17 2H7C7 4.76 9.24 7 12 7Z"/></svg>

<svg xmlns="http://www.w3.org/2000/svg" width="24" height="24" viewBox="0 0 24 24" fill='currentColor'><path d="M3.33 16H11v-3H4zM13 16h7.67L20 13h-7zm8.11 2H13v4h9zM2 22h9v-4H2.89zM13 8h-2v3h2zm4.179-2.209-1.414 1.414 2.12 2.121L19.3 7.912zm-10.353 0L4.705 7.913l1.414 1.414L8.24 7.206zM6 2H3v2h3zm15 0h-3v2h3zm-9 5c2.76 0 5-2.24 5-5H7c0 2.76 2.24 5 5 5"/></svg>
